!!!!SEGMENT: Snf0233-O_bone_Jesu.krn
!!!id: Snf0233
!!!AGN: Motet
!!!SCT: Edwards, Gasch, Tröster (2022)
!!!voices: 4
!!!COM: Ludwig Senfl
!!!OTL: O bone Jesu
**kern	**text	**kern	**text	**kern	**text	**kern	**text
*part4	*part4	*part3	*part3	*part2	*part2	*part1	*part1
*staff4	*staff4	*staff3	*staff3	*staff2	*staff2	*staff1	*staff1
*I"Bassus	*	*I"Tenor	*	*I"Altus	*	*I"Superius	*
*I'B	*	*I'T	*	*I'A	*	*I'S	*
*clefF4	*	*clefGv2	*	*clefGv2	*	*clefG2	*
*	*	*	*	*	*	*	*
*k[]	*	*k[]	*	*k[]	*	*k[]	*
*	*	*	*	*	*	*	*
*M2/1	*	*M2/1	*	*M2/1	*	*M2/1	*
*met(C|)	*	*met(C|)	*	*met(C|)	*	*met(C|)	*
!!section: Prima pars: O bone Jesu
!!!OMD: Prima pars: O bone Jesu
[0AA	O	0r	.	0A	O	0r	.
=1	=1	=1	=1	=1	=1	=1	=1
0AA]	.	[0A	O	1c	bo-	0r	.
.	.	.	.	1c	-ne	.	.
=2	=2	=2	=2	=2	=2	=2	=2
[0D	bo-	0A]	.	1.d	Je-	0d	O
.	.	.	.	4c	.	.	.
.	.	.	.	4B	.	.	.
=3	=3	=3	=3	=3	=3	=3	=3
0D]	.	[0d	bo-	4A	.	1f	bo-
.	.	.	.	4G	.	.	.
.	.	.	.	2B	.	.	.
.	.	.	.	1A	.	1f	-ne
=4	=4	=4	=4	=4	=4	=4	=4
[0GG	-ne	0d]	.	1.G	.	1.g	Je-
.	.	.	.	2A	.	4f	.
.	.	.	.	.	.	4e	.
=5	=5	=5	=5	=5	=5	=5	=5
0GG]	.	[0G	-ne	2B	.	4d	.
.	.	.	.	.	.	4c	.
.	.	.	.	1c	.	2e	.
.	.	.	.	.	.	1d	.
.	.	.	.	2B	.	.	.
=6	=6	=6	=6	=6	=6	=6	=6
[0C	Je-	0G]	.	2.e	.	1.c	.
.	.	.	.	4d	.	.	.
.	.	.	.	2c	.	.	.
.	.	.	.	4B	.	2d	.
.	.	.	.	4A	.	.	.
=7	=7	=7	=7	=7	=7	=7	=7
0C]	.	[0c	Je-	2G	.	[0e	.
.	.	.	.	1A	.	.	.
.	.	.	.	2G	.	.	.
=8	=8	=8	=8	=8	=8	=8	=8
[0AA	-su!	0c]	.	2A	.	0e]	.
.	.	.	.	2E	.	.	.
.	.	.	.	2.A	.	.	.
.	.	.	.	4B	.	.	.
=9	=9	=9	=9	=9	=9	=9	=9
0AAl]	.	0Al	-su!	0cl	-su!	0el	-su!
=10||	=10||	=10||	=10||	=10||	=10||	=10||	=10||
0r	.	0r	.	1d	Du-	1r	.
.	.	.	.	1d	-o	1a	Du-
=11	=11	=11	=11	=11	=11	=11	=11
0r	.	0r	.	2r	.	1a	-o
.	.	.	.	2d	in	.	.
.	.	.	.	2c	me	2r	.
.	.	.	.	2A	.	2a	in
=12	=12	=12	=12	=12	=12	=12	=12
0r	.	0r	.	1c	.	2g	me
.	.	.	.	.	.	2e	.
.	.	.	.	2.G	co-	1g	.
.	.	.	.	4A	.	.	.
=13	=13	=13	=13	=13	=13	=13	=13
2r	.	1r	.	2B	.	2.d	co-
2D	…na-	.	.	2A	-gno-	.	.
.	.	.	.	.	.	4e	.
1D	-tu-	2r	.	1d	-sco:	2f	.
.	.	2A	…na-	.	.	2d	-gno-
=14	=14	=14	=14	=14	=14	=14	=14
1D	-ram	1A	-tu-	0r	.	1a	-sco:
2r	.	1A	-ram	.	.	1r	.
2D	quam	.	.	.	.	.	.
=15	=15	=15	=15	=15	=15	=15	=15
2C	tu	2r	.	0r	.	0r	.
2AA	fe-	2A	quam	.	.	.	.
1C	-ci-	2G	tu	.	.	.	.
.	.	2E	fe-	.	.	.	.
=16	=16	=16	=16	=16	=16	=16	=16
1GG	-sti	1G	-ci-	2r	.	1r	.
.	.	.	.	1d	…et	.	.
1r	.	1D	-sti	.	.	2r	.
.	.	.	.	2d	pec-	[2a	…et
=17	=17	=17	=17	=17	=17	=17	=17
0r	.	0r	.	2.d	-ca-	2a]	.
.	.	.	.	.	.	2a	pec-
.	.	.	.	4e	.	.	.
.	.	.	.	4f	.	2.a	-ca-
.	.	.	.	4d	.	.	.
.	.	.	.	[2f	.	.	.
.	.	.	.	.	.	4b	.
=18	=18	=18	=18	=18	=18	=18	=18
0r	.	0r	.	2f]	.	4cc	.
.	.	.	.	.	.	4a	.
.	.	.	.	4e	.	1cc	.
.	.	.	.	4d	.	.	.
.	.	.	.	2c	.	.	.
.	.	.	.	2c	-tum	4b	.
.	.	.	.	.	.	4a	.
=19	=19	=19	=19	=19	=19	=19	=19
1r	.	0r	.	2r	.	2g	.
.	.	.	.	2e	quod	2g	-tum
2r	.	.	.	1e	e-	1r	.
2E	…quod	.	.	.	.	.	.
=20	=20	=20	=20	=20	=20	=20	=20
1E	e-	1r	.	2e	-go	2r	.
.	.	.	.	2e	ad-	2b	quod
2E	-go	2r	.	2.e	-ie-	1b	e-
2E	ad-	2B	…quod	.	.	.	.
.	.	.	.	4f	.	.	.
=21	=21	=21	=21	=21	=21	=21	=21
2.E	-ie-	1B	e-	4g	.	2b	-go
.	.	.	.	4e	.	.	.
.	.	.	.	1g	.	2b	ad-
4F	.	.	.	.	.	.	.
4G	.	2B	-go	.	.	2.b	-ie-
4E	.	.	.	.	.	.	.
[2G	.	2B	ad-	4f	.	.	.
.	.	.	.	4e	.	4cc	.
=22	=22	=22	=22	=22	=22	=22	=22
2G]	.	2.B	-ie-	1d	.	4dd	.
.	.	.	.	.	.	4b	.
4F	.	.	.	.	.	1dd	.
4E	.	4c	.	.	.	.	.
1D	.	4d	.	1d	-ci.	.	.
.	.	4B	.	.	.	.	.
.	.	[2d	.	.	.	4cc	.
.	.	.	.	.	.	4b	.
=23	=23	=23	=23	=23	=23	=23	=23
1D	-ci.	2d]	.	0r	.	1a	.
.	.	4c	.	.	.	.	.
.	.	4B	.	.	.	.	.
1r	.	1A	.	.	.	1a	-ci.
=24	=24	=24	=24	=24	=24	=24	=24
1r	.	1A	-ci.	1r	.	1r	.
[1D	Fa-	[1d	Fa-	[1f	Fa-	[1a	Fa-
=25	=25	=25	=25	=25	=25	=25	=25
2D]	.	2d]	.	2f]	.	2a]	.
2D	-te-	2d	-te-	2f	-te-	2a	-te-
1D	-or,	1d	-or,	1f	-or,	1a	-or,
=26	=26	=26	=26	=26	=26	=26	=26
1.A	Do-	1.c	Do-	1.e	Do-	1.a	Do-
2D	-mi-	2A	-mi-	2d	-mi-	2f	-mi-
=27	=27	=27	=27	=27	=27	=27	=27
1D	-ne,	0A	-ne,	1d	-ne,	1f	-ne,
2r	.	.	.	2r	.	2r	.
2D	qui-	.	.	2d	qui-	2f	qui-
=28	=28	=28	=28	=28	=28	=28	=28
2D	-a	2r	.	2d	-a	2f	-a
2D	per	2A	qui-	2d	per	2f	per
1F	cul-	2A	-a	2c	cul-	1a	cul-
.	.	2A	per	2d	.	.	.
=29	=29	=29	=29	=29	=29	=29	=29
1C	-pam	1c	cul-	1e	-pam	1g	-pam
2r	.	1G	-pam	2r	.	2r	.
[2G	de-	.	.	2d	de-	[2b	de-
=30	=30	=30	=30	=30	=30	=30	=30
2G]	.	2G	de-	2B	-for-	2b]	.
2E	-for-	2G	-for-	1e	-ma-	2b	-for-
1F	-ma-	1A	-ma-	.	.	1a	-ma-
.	.	.	.	2d	.	.	.
=31	=31	=31	=31	=31	=31	=31	=31
1E	-vi	1B	-vi	1e	-vi	1g	-vi
1G	na-	1B	na-	1d	na-	1g	na-
=32	=32	=32	=32	=32	=32	=32	=32
1.G	-tu-	1.B	-tu-	1.d	-tu-	0g	-tu-
2C	.	2c	.	2e	.	.	.
=33	=33	=33	=33	=33	=33	=33	=33
0C	-ram.	1c	-ram.	1e	-ram.	0g	-ram.
.	.	2r	.	2r	.	.	.
.	.	2G	Me-	[2g	Me-	.	.
=34	=34	=34	=34	=34	=34	=34	=34
1r	.	1A	-men-	2g]	.	1r	.
.	.	.	.	2f	-men-	.	.
1C	Me-	1E	-to,	2g	-to	1cc	Me-
.	.	.	.	[2e	.	.	.
=35	=35	=35	=35	=35	=35	=35	=35
0D	-men-	2r	.	2e]	.	1a	-men-
.	.	2.F	[me-	4d	.	.	.
.	.	.	.	4c	.	.	.
.	.	.	.	2.d	.	1dd	.
.	.	4D	.	.	.	.	.
.	.	4F	-men-	.	.	.	.
.	.	4G	.	4e	.	.	.
=36	=36	=36	=36	=36	=36	=36	=36
0AA	-to	0A	-to]	2f	.	0cc	-to
.	.	.	.	1e	quod	.	.
.	.	.	.	4d	.	.	.
.	.	.	.	4c	.	.	.
=37	=37	=37	=37	=37	=37	=37	=37
1r	.	1G	quod	2B	.	0r	.
.	.	.	.	2B	sum	.	.
1C	quod	1G	sum	[1e	spi-	.	.
=38	=38	=38	=38	=38	=38	=38	=38
1C	sum	1.c	spi-	2e]	.	0r	.
.	.	.	.	2c	-ri-	.	.
[1F	spi-	.	.	1c	-tus	.	.
.	.	2A	-ri-	.	.	.	.
=39	=39	=39	=39	=39	=39	=39	=39
2F]	.	2A	-tus	1.f	va-	0r	.
2D	-ri-	4B	va-	.	.	.	.
.	.	4A	.	.	.	.	.
1D	-tus	4B	.	.	.	.	.
.	.	4A	.	.	.	.	.
.	.	[2d	.	2d	.	.	.
=40	=40	=40	=40	=40	=40	=40	=40
0E	va-	2d]	.	1g	-dens	0r	.
.	.	4c#i	.	.	.	.	.
.	.	4B	.	.	.	.	.
.	.	1c#i	.	2r	.	.	.
.	.	.	.	[2g	et	.	.
=41	=41	=41	=41	=41	=41	=41	=41
0D	-dens	1d	-dens	2g]	.	0r	.
.	.	.	.	4f	.	.	.
.	.	.	.	4e	.	.	.
.	.	1r	.	1f	.	.	.
=42	=42	=42	=42	=42	=42	=42	=42
2r	.	2.c	et	2e	.	0r	.
1F	et	.	.	2.c	.	.	.
.	.	4B	.	.	.	.	.
.	.	2A	non	.	.	.	.
.	.	.	.	4d	.	.	.
2E	non	2G	re-	2e	.	.	.
=43	=43	=43	=43	=43	=43	=43	=43
2D	re-	4F	.	1A	non	0r	.
.	.	4E	.	.	.	.	.
2C	.	1A	.	.	.	.	.
1BB	-di-	.	.	1d	.	.	.
.	.	2G#i	-di-	.	.	.	.
=44	=44	=44	=44	=44	=44	=44	=44
1AA	-ens,	1A	-ens,	2.c	re-	2r	.
.	.	.	.	.	.	1cc	…et
.	.	.	.	4d	.	.	.
1r	.	1r	.	4e	.	.	.
.	.	.	.	4f	.	.	.
.	.	.	.	4g	.	2b	non
.	.	.	.	4d	.	.	.
=45	=45	=45	=45	=45	=45	=45	=45
0r	.	0r	.	2f	.	2a	re-
.	.	.	.	1e	-di-	2g	.
.	.	.	.	.	.	1f	.
.	.	.	.	2d	-ens,	.	.
=46	=46	=46	=46	=46	=46	=46	=46
2r	.	0r	.	2.g	re-	2e	.
1c	et	.	.	.	.	2.g	.
.	.	.	.	4f	.	.	.
.	.	.	.	2e	.	.	.
.	.	.	.	.	.	4a	.
2B	non	.	.	2d	.	2b	.
=47	=47	=47	=47	=47	=47	=47	=47
2A	re-	2r	.	4c	.	2cc	.
.	.	.	.	4B	.	.	.
2G	.	2G	et	1e	.	2b	.
1F	.	1A	non	.	.	1a	.
.	.	.	.	2d	.	.	.
=48	=48	=48	=48	=48	=48	=48	=48
1.E	.	1.B	re-	1.e	.	1.g	.
2AA	-di-	2A	-di-	2c	-di-	2e	-di-
=49	=49	=49	=49	=49	=49	=49	=49
00AA	-ens.	00A	-ens.	00c	-ens.	00e	-ens.
=50||	=50||	=50||	=50||	=50||	=50||	=50||	=50||
*M2/1	*	*M2/1	*	*M2/1	*	*M2/1	*
*met(C|)	*	*met(C|)	*	*met(C|)	*	*met(C|)	*
!!section: Secunda pars: Per me ivi
!!!OMD: Secunda pars: Per me ivi
1D	Per	0r	.	0r	.	0r	.
1C	me	.	.	.	.	.	.
=51	=51	=51	=51	=51	=51	=51	=51
1F	i-	1A	Per	0r	.	0r	.
1E	-vi	1G	me	.	.	.	.
=52	=52	=52	=52	=52	=52	=52	=52
4AA	in	1c	i-	0r	.	0r	.
4BB	.	.	.	.	.	.	.
4C	.	.	.	.	.	.	.
4D	.	.	.	.	.	.	.
4E	.	1B	-vi	.	.	.	.
4F	.	.	.	.	.	.	.
[2G	.	.	.	.	.	.	.
=53	=53	=53	=53	=53	=53	=53	=53
2G]	.	2r	.	0r	.	0r	.
2F	pec-	2A	in	.	.	.	.
4G	-ca-	2B	pec-	.	.	.	.
4F	.	.	.	.	.	.	.
4E	.	[2c	-ca-	.	.	.	.
4D	.	.	.	.	.	.	.
=54	=54	=54	=54	=54	=54	=54	=54
2C	.	4c]	.	1r	.	0r	.
.	.	4B	.	.	.	.	.
2D	.	1A	.	.	.	.	.
1BB	.	.	.	2r	.	.	.
.	.	2G#i	.	2d	…per	.	.
=55	=55	=55	=55	=55	=55	=55	=55
1AA	-tum,	1A	-tum,	2c	me	1r	.
.	.	.	.	2c	re-	.	.
1r	.	1r	.	1f	-di-	2r	.
.	.	.	.	.	.	2a	…per
=56	=56	=56	=56	=56	=56	=56	=56
0r	.	0r	.	1e	-re	2g	me
.	.	.	.	.	.	2g	re-
.	.	.	.	4A	non	1cc	-di-
.	.	.	.	4B	.	.	.
.	.	.	.	4c	.	.	.
.	.	.	.	4d	.	.	.
=57	=57	=57	=57	=57	=57	=57	=57
0r	.	0r	.	4e	.	1b	-re
.	.	.	.	4f	.	.	.
.	.	.	.	2.g	.	.	.
.	.	.	.	.	.	2r	.
.	.	.	.	4f	.	.	.
.	.	.	.	4d	.	2a	non
.	.	.	.	4f	.	.	.
=58	=58	=58	=58	=58	=58	=58	=58
2r	.	0r	.	1e	pos-	2b	pos-
1A	…non	.	.	.	.	2.cc	.
.	.	.	.	2c	.	.	.
.	.	.	.	.	.	4b	.
2F	pos-	.	.	2d	.	[2a	.
=59	=59	=59	=59	=59	=59	=59	=59
2G	.	2r	.	2B	.	2a]	.
2E	.	2G	…non	2c	.	2g	.
2F	.	2F	.	2A	.	1a	-sum.
2D	.	[2A	pos-	[2d	.	.	.
=60	=60	=60	=60	=60	=60	=60	=60
1E	.	4A]	.	2d]	.	0r	.
.	.	4G	.	.	.	.	.
.	.	1G	.	2c#i	.	.	.
1D	.	.	.	1d	-sum.	.	.
.	.	2F#i	.	.	.	.	.
=61	=61	=61	=61	=61	=61	=61	=61
1GG	-sum.	1G	-sum.	0r	.	0r	.
1r	.	1r	.	.	.	.	.
=62	=62	=62	=62	=62	=62	=62	=62
0G	Tu,	0B	Tu,	0d	Tu,	0g	Tu,
=63	=63	=63	=63	=63	=63	=63	=63
1G	bo-	1B	bo-	1d	bo-	1g	bo-
1E	-ne	1B	-ne	1e	-ne	1g	-ne
=64	=64	=64	=64	=64	=64	=64	=64
0G	Je-	1.B	Je-	0d	Je-	0g	Je-
.	.	4A	.	.	.	.	.
.	.	4G	.	.	.	.	.
=65	=65	=65	=65	=65	=65	=65	=65
[0D	-su,	0d	.	1.f	.	1.a	.
.	.	.	.	2d	.	2f	.
=66	=66	=66	=66	=66	=66	=66	=66
0D]	.	0A	-su,	0d	-su,	0f	-su,
=67||	=67||	=67||	=67||	=67||	=67||	=67||	=67||
*M3/1	*	*M3/1	*	*M3/1	*	*M3/1	*
*met(C|3)	*	*met(C|3)	*	*met(C|3)	*	*met(C|3)	*
1D	tol-	1%3r	.	1%3r	.	1%3r	.
1D	-le	.	.	.	.	.	.
1D	a	.	.	.	.	.	.
=68	=68	=68	=68	=68	=68	=68	=68
0C	me	1A	tol-	1%3r	.	1%3r	.
.	.	1A	-le	.	.	.	.
1D	quod	1A	a	.	.	.	.
=69	=69	=69	=69	=69	=69	=69	=69
2.E	e-	0G	me	1%3r	.	1%3r	.
4D	.	.	.	.	.	.	.
2C	.	.	.	.	.	.	.
2BB	-go	.	.	.	.	.	.
1AA	ad-	1A	quod	.	.	.	.
=70	=70	=70	=70	=70	=70	=70	=70
2GG	-ie-	2.B	e-	1%3r	.	1%3r	.
2BB	.	.	.	.	.	.	.
.	.	4A	.	.	.	.	.
2C	.	2G	.	.	.	.	.
1D	.	2F	-go	.	.	.	.
.	.	1E	ad-	.	.	.	.
2C	.	.	.	.	.	.	.
=71	=71	=71	=71	=71	=71	=71	=71
1.D	.	2D	-ie-	1d	…ut	1%3r	.
.	.	2.F	.	.	.	.	.
.	.	.	.	2d	per-	.	.
.	.	4G	.	.	.	.	.
2C	.	1A	.	1d	-ma-	.	.
1BB	.	.	.	.	.	.	.
.	.	2G#i	.	2d	-ne-	.	.
=72	=72	=72	=72	=72	=72	=72	=72
0AA	-ci	0A	-ci	0c	-at	1a	…ut
.	.	.	.	.	.	2a	per-
.	.	.	.	.	.	1a	-ma-
1r	.	1r	.	1d	quod	.	.
.	.	.	.	.	.	2a	-ne-
=73	=73	=73	=73	=73	=73	=73	=73
1%3r	.	1%3r	.	2.e	tu	0g	-at
.	.	.	.	4d	.	.	.
.	.	.	.	2c	.	.	.
.	.	.	.	2B	fe-	.	.
.	.	.	.	1A	-ci-	1a	quod
=74	=74	=74	=74	=74	=74	=74	=74
1%3r	.	1G	…quod	2G	.	2.b	tu
.	.	.	.	2B	.	.	.
.	.	.	.	.	.	4a	.
.	.	2E	tu	2c	.	2g	.
.	.	2F	fe-	1d	.	2f	fe-
.	.	2G	-ci-	.	.	1e	-ci-
.	.	2A	.	2c	.	.	.
=75	=75	=75	=75	=75	=75	=75	=75
1D	…quod	1D	-sti,	1.d	.	2d	.
.	.	.	.	.	.	2f	.
2BB	tu	1r	.	.	.	2g	.
2C	fe-	.	.	2c	.	1a	.
2D	-ci-	1r	.	1B	.	.	.
2E	.	.	.	.	.	2g#i	.
=76	=76	=76	=76	=76	=76	=76	=76
*M2/1	*	*M2/1	*	*M2/1	*	*M2/1	*
*met(C|)	*	*met(C|)	*	*met(C|)	*	*met(C|)	*
1AA	-sti,	0r	.	1A	-sti,	1a	-sti,
1r	.	.	.	1r	.	1r	.
=77	=77	=77	=77	=77	=77	=77	=77
0A	ne	0c	ne	0e	ne	0a	ne
=78	=78	=78	=78	=78	=78	=78	=78
1A	pe-	1c	pe-	1e	pe-	1a	pe-
1A	-re-	1c	-re-	1e	-re-	1a	-re-
=79	=79	=79	=79	=79	=79	=79	=79
0F	-at	0c	-at	0f	-at	0a	-at
=80	=80	=80	=80	=80	=80	=80	=80
1r	.	1c	quod	1r	.	1g	quod
1F	quod	1c	pre-	1f	quod	[1a	pre-
=81	=81	=81	=81	=81	=81	=81	=81
1F	pre-	1c	-ci-	1f	pre-	1a]	.
1F	-ci-	[1d	-o-	1f	-ci-	1a	-ci-
=82	=82	=82	=82	=82	=82	=82	=82
0G	-o-	1d]	.	1d	-o-	0b	-o-
.	.	1B	-so	1d	-so	.	.
=83	=83	=83	=83	=83	=83	=83	=83
1E	-so	1.c	san-	1e	san-	1g	-so
[1F	san-	.	.	1c	-gui-	[1a	san-
.	.	2A	-gui-	.	.	.	.
=84	=84	=84	=84	=84	=84	=84	=84
2F]	.	1A	-ne	1d	-ne	2a]	.
2D	-gui-	.	.	.	.	2f	-gui-
1D	-ne	1B	tu-	2.d	tu-	1f	-ne
.	.	.	.	4c	.	.	.
=85	=85	=85	=85	=85	=85	=85	=85
0E	tu-	[0G	-o	4B	.	1.g	tu-
.	.	.	.	4G	.	.	.
.	.	.	.	1c	.	.	.
.	.	.	.	2B	.	2e	.
=86	=86	=86	=86	=86	=86	=86	=86
0C	-o	0G]	.	0c	-o	0e	-o
*	*	*	*	*	*	*	*
=87	=87	=87	=87	=87	=87	=87	=87
1r	.	1G	in	1r	.	1r	.
1C	in	[1A	cru-	1c	in	1e	in
=88	=88	=88	=88	=88	=88	=88	=88
0D	cru-	1A]	.	1A	cru-	1f	cru-
.	.	1F	-ce	1A	-ce	2d	.
.	.	.	.	.	.	[2dd	.
=89	=89	=89	=89	=89	=89	=89	=89
1BB	-ce	0G	re-	2B	re-	4dd]	.
.	.	.	.	.	.	4cc	.
.	.	.	.	2d	.	4b	.
.	.	.	.	.	.	4a	.
[1C	re-	.	.	4e	.	1g	-ce
.	.	.	.	4d	.	.	.
.	.	.	.	[2g	.	.	.
=90	=90	=90	=90	=90	=90	=90	=90
1C]	.	1E	-de-	4g]	.	2r	.
.	.	.	.	4f	.	.	.
.	.	.	.	4e	.	2.cc	re-
.	.	.	.	4d	.	.	.
1AA	-de-	1F	-mi-	2.c	.	.	.
.	.	.	.	.	.	4b	.
.	.	.	.	.	.	4a	.
.	.	.	.	8dL	.	4g	.
.	.	.	.	8cJ	.	.	.
=91	=91	=91	=91	=91	=91	=91	=91
1BB	-mi-	1D	.	1d	.	2f	-de-
.	.	.	.	.	.	2.g	-mi-
1GG	.	1G	.	1B	.	.	.
.	.	.	.	.	.	4f	.
.	.	.	.	.	.	4e	.
.	.	.	.	.	.	4d	.
=92	=92	=92	=92	=92	=92	=92	=92
0AA	-sti	2E	.	2.A	.	2c	.
.	.	2.A	.	.	.	1cc	.
.	.	.	.	4B	.	.	.
.	.	.	.	4c	.	.	.
.	.	4B	.	4d	.	.	.
.	.	[2c	.	[2e	.	4b	.
.	.	.	.	.	.	4a	.
=93	=93	=93	=93	=93	=93	=93	=93
0r	.	2c]	.	2e]	.	2g	.
.	.	4B	.	4d	.	2a	.
.	.	4A	.	4c	.	.	.
.	.	1B	.	4B	.	4g	.
.	.	.	.	4A	.	4f	.
.	.	.	.	[2d	.	4e	.
.	.	.	.	.	.	4d	.
=94	=94	=94	=94	=94	=94	=94	=94
1r	.	[0Al	-sti.	2d]	.	1e	.
.	.	.	.	2c#i	-de-	.	.
[1D	re-	.	.	2d	-mi-	2.f	.
.	.	.	.	[2f	.	.	.
.	.	.	.	.	.	8eL	.
.	.	.	.	.	.	8dJ	.
=95	=95	=95	=95	=95	=95	=95	=95
2D]	.	0A_	.	2f]	.	1a	-sti.
4C	.	.	.	4e	.	.	.
4BB	.	.	.	4d	.	.	.
1C	.	.	.	1e	.	1r	.
=96	=96	=96	=96	=96	=96	=96	=96
1FF	-de-	0A_	.	2A	.	2r	.
.	.	.	.	1c	.	1f	-sti.
[1F	.	.	.	.	.	.	.
.	.	.	.	4B	.	4e	.
.	.	.	.	4A	.	4d	.
=97	=97	=97	=97	=97	=97	=97	=97
2F]	.	0A_	.	2c	.	[0al	.
4E	.	.	.	2F	-sti,	.	.
4D	.	.	.	.	.	.	.
2.A	-mi-	.	.	2r	.	.	.
.	.	.	.	[2c	re-	.	.
4AA	.	.	.	.	.	.	.
=98	=98	=98	=98	=98	=98	=98	=98
[0AAl	-sti.	0A_	.	2c]	.	0a_	.
.	.	.	.	4B	-de-	.	.
.	.	.	.	4A	.	.	.
.	.	.	.	2.e	-mi-	.	.
.	.	.	.	4E	.	.	.
=99	=99	=99	=99	=99	=99	=99	=99
00AA]	.	00A]	.	00El	-sti.	00a]	.
==	==	==	==	==	==	==	==
*-	*-	*-	*-	*-	*-	*-	*-
!!!system-decoration: [*]
!!!RDF**kern: i = editorial accidental
!!!RDF**kern: l = terminal long
!!!!PTL: <i> New Senfl Edition: Motets for Four Voices (N-V) </i>
!!!PPR: Hollitzer Verlag
!!!PC#: Denkmäler der Tonkunst in Österreich 163.2
!!!PDT: 2022
!!!PED: Scott Lee Edwards, Stefan Gasch, and Sonja Tröster
!!!YEC: Copyright 2022 Denkmäler der Tonkunst in Österreich
!!!YEM: CC-BY-NC 4.0 (https://creativecommons.org/licenses/by-nc/4.0/legalcode)
!!!EED: Benjamin Ory
!!!EEV: 2024/3/3
!!!verovio: header true
!!!header-left: @{PTL}\n@{PED}, eds.\n@{PC#} (@{PDT})&nbsp;\n
!!!header-right:
!!!header-center: